icon-svg/wall-tuar.svg

<svg xmlns="http://www.w3.org/2000/svg" fill="#44739e" viewBox="0 0 24 24"><path d="M20.313 3.492c0-.482-.723-.964-2.409-1.2a35.6 35.6 0 0 0-5.061-.241 35.6 35.6 0 0 0-5.06.241c-1.687.241-2.41.482-2.41 1.205v.964L3.687 4.7c-.241 0-.241.241-.241.481l.241 13.494a.236.236 0 0 0 .241.241l4.819 2.651c1.205.241 2.651.241 3.855.482h.723c2.41 0 3.856-.482 4.338-1.2v-4.827h.237a11.7 11.7 0 0 0 1.69-.722c.241-.241.723-.482.723-.723s.241-3.855.241-5.3-.241-5.542-.241-5.783m-2.891 7.952a27.8 27.8 0 0 1-4.579.24 29.3 29.3 0 0 1-4.578-.24 3.887 3.887 0 0 1-2.165-.725V8.07h.241a15.4 15.4 0 0 0 1.687.482 35.96 35.96 0 0 0 5.06.482 35.96 35.96 0 0 0 5.061-.482 4.46 4.46 0 0 0 1.686-.482v2.892a7.12 7.12 0 0 1-2.409.482m2.164-4.338a7.03 7.03 0 0 1-2.168.482 29.5 29.5 0 0 1-4.579.482 29.16 29.16 0 0 1-4.578-.241L6.1 7.106V4.215a15.4 15.4 0 0 1 1.683.485 35.6 35.6 0 0 0 5.06.241A35.6 35.6 0 0 0 17.9 4.7a4.46 4.46 0 0 0 1.686-.482v2.888M8.265 3.01c1.446 0 3.133-.241 4.578-.241a29.2 29.2 0 0 1 4.579.241 5.66 5.66 0 0 1 1.927.482 5.3 5.3 0 0 1-1.927.241 26.7 26.7 0 0 1-4.579.482 29.16 29.16 0 0 1-4.578-.241 5.67 5.67 0 0 1-1.928-.482c.723-.241 1.205-.241 1.928-.482M19.59 14.576l-2.168.723a26.7 26.7 0 0 1-4.579.482 15.13 15.13 0 0 1-4.578-.723 2.737 2.737 0 0 1-1.928-.723 14.3 14.3 0 0 0-.237-2.651 3.483 3.483 0 0 0 1.687.482 35.96 35.96 0 0 0 5.06.482 35.96 35.96 0 0 0 5.061-.482 3.48 3.48 0 0 0 1.686-.482v2.892"/></svg>

<?xml version="1.0" encoding="UTF-8"?>
<svg width="33px" height="32px" viewBox="0 0 24 24" fill="#44739e" version="1.1" xmlns="http://www.w3.org/2000/svg" xmlns:xlink="http://www.w3.org/1999/xlink">
            <path d="m 20.313,3.492 v 0 c 0,-0.482 -0.723,-0.964 -2.409,-1.2 A 35.593,35.593 0 0 0 12.843,2.051 35.586,35.586 0 0 0 7.783,2.292 C 6.096,2.533 5.373,2.774 5.373,3.497 v 0 0.964 L 3.687,4.7 C 3.446,4.7 3.446,4.941 3.446,5.181 l 0.241,13.494 a 0.236,0.236 0 0 0 0.241,0.241 l 4.819,2.651 v 0 c 1.205,0.241 2.651,0.241 3.855,0.482 h 0.723 c 2.41,0 3.856,-0.482 4.338,-1.2 V 16.022 H 17.9 A 11.732,11.732 0 0 0 19.59,15.3 c 0.241,-0.241 0.723,-0.482 0.723,-0.723 0,-0.241 0.241,-3.855 0.241,-5.3 0,-1.445 -0.241,-5.542 -0.241,-5.783 m -2.891,7.952 A 27.788,27.788 0 0 1 12.843,11.686 29.28,29.28 0 0 1 8.265,11.446 3.887,3.887 0 0 1 6.1,10.721 v 0 -2.651 h 0.241 a 15.359,15.359 0 0 0 1.687,0.482 35.955,35.955 0 0 0 5.06,0.482 35.955,35.955 0 0 0 5.061,-0.482 4.463,4.463 0 0 0 1.686,-0.482 v 0 2.892 0 a 7.124,7.124 0 0 1 -2.409,0.482 M 19.59,7.106 v 0 A 7.031,7.031 0 0 1 17.422,7.588 29.528,29.528 0 0 1 12.843,8.07 29.16,29.16 0 0 1 8.265,7.829 L 6.1,7.106 V 4.215 A 15.359,15.359 0 0 1 7.783,4.7 35.586,35.586 0 0 0 12.843,4.941 35.593,35.593 0 0 0 17.9,4.7 4.463,4.463 0 0 0 19.586,4.218 V 7.106 M 8.265,3.01 c 1.446,0 3.133,-0.241 4.578,-0.241 A 29.166,29.166 0 0 1 17.422,3.01 5.661,5.661 0 0 1 19.349,3.492 5.3,5.3 0 0 1 17.422,3.733 26.693,26.693 0 0 1 12.843,4.215 29.16,29.16 0 0 1 8.265,3.974 5.672,5.672 0 0 1 6.337,3.492 C 7.06,3.251 7.542,3.251 8.265,3.01 M 19.59,14.576 17.422,15.299 A 26.693,26.693 0 0 1 12.843,15.781 15.131,15.131 0 0 1 8.265,15.058 2.737,2.737 0 0 1 6.337,14.335 14.314,14.314 0 0 0 6.1,11.684 a 3.483,3.483 0 0 0 1.687,0.482 35.955,35.955 0 0 0 5.06,0.482 35.955,35.955 0 0 0 5.061,-0.482 3.479,3.479 0 0 0 1.686,-0.482 v 0 2.892"></path>

</svg>
